assets/glyphs/for-notes/azure.svg

<?xml version="1.0" encoding="UTF-8" standalone="no"?>
<svg
   version="1.1"
   id="Layer_1"
   x="0px"
   y="0px"
   width="192721"
   viewBox="0 0 192721 141376"
   enable-background="new 0 0 439 376"
   xml:space="preserve"
   sodipodi:docname="azure.svg"
   inkscape:version="1.3.2 (091e20e, 2023-11-25, custom)"
   height="141376"
   xmlns:inkscape="http://www.inkscape.org/namespaces/inkscape"
   xmlns:sodipodi="http://sodipodi.sourceforge.net/DTD/sodipodi-0.dtd"
   xmlns="http://www.w3.org/2000/svg"
   xmlns:svg="http://www.w3.org/2000/svg"><defs
   id="defs366" /><sodipodi:namedview
   id="namedview366"
   pagecolor="#ffffff"
   bordercolor="#000000"
   borderopacity="0.25"
   inkscape:showpageshadow="2"
   inkscape:pageopacity="0.0"
   inkscape:pagecheckerboard="0"
   inkscape:deskcolor="#d1d1d1"
   inkscape:zoom="1.0917553"
   inkscape:cx="25.646773"
   inkscape:cy="295.39586"
   inkscape:window-width="1920"
   inkscape:window-height="1017"
   inkscape:window-x="-8"
   inkscape:window-y="-8"
   inkscape:window-maximized="1"
   inkscape:current-layer="Layer_1" />




















































































































































<path
   fill="#EC1C24"
   opacity="1"
   stroke="none"
   d="m 221.08713,30.000599 c 1.71097,-3.30533 3.42193,-6.610663 5.12399,-10.263237 3.20526,-3.342985 3.94978,-0.06972 5.46407,2.006166 1.06323,2.083866 1.93574,3.895249 3.07679,6.323027 1.71654,3.392506 3.16452,6.168621 4.6211,9.285053 5.23227,9.891293 10.41984,19.462254 15.69288,28.985901 3.2582,5.884682 6.64647,11.697357 10.09151,17.890877 2.40692,4.803894 4.69873,9.259262 7.16766,14.016586 4.40366,8.101698 8.63022,15.901438 12.94272,24.041708 1.70929,3.89684 3.62128,6.60927 8.30817,6.72373 5.8186,0.14207 11.61532,1.17941 17.85605,1.88754 2.4765,0.0174 4.51846,-0.0227 7.02655,-0.001 21.15408,1.44974 41.84204,2.83771 62.97739,4.31693 7.44274,0.80247 14.43814,1.51368 21.34719,2.43689 -0.14792,0.51332 -0.1651,0.8172 -0.39258,1.26466 -1.02932,0.99603 -1.80401,1.851 -2.57873,2.70595 -2.23218,2.11691 -4.46436,4.23382 -6.84778,6.62849 -1.35852,1.24385 -2.56579,2.20995 -4.11258,3.70519 -3.13949,3.37823 -5.93948,6.22732 -9.03067,9.24035 -2.46973,2.37708 -4.64825,4.59023 -7.14428,6.91175 -1.80216,1.66644 -3.26316,3.24789 -4.77533,4.77882 -10.93363,11.06931 -21.87763,22.12837 -33.12113,33.33182 -5.00021,4.80816 -9.3735,9.87277 -14.48114,14.03662 -5.74255,4.68144 -8.17114,9.70784 -4.81723,17.09398 0.83029,3.79977 1.73038,7.21329 2.66998,11.04838 1.09427,5.56604 2.10138,10.72081 3.21228,15.85314 4.23752,19.57779 8.50849,39.14837 12.76697,58.72165 0.37573,1.78503 0.75147,3.57003 1.26306,6.04254 0.78787,3.18832 1.43982,5.68918 2.0918,8.19003 -0.5806,1.20953 -1.16123,2.4191 -2.38525,3.44388 -3.41968,-1.35367 -6.1959,-2.52261 -9.15519,-3.9888 -5.10653,-3.0704 -10.03003,-5.84351 -15.15286,-8.90176 -4.98544,-2.78187 -9.74979,-5.32132 -14.56207,-7.76639 -9.73905,-4.94834 -19.50415,-9.84549 -29.61047,-14.8761 -9.40272,-5.0361 -18.90287,-9.30097 -27.37147,-15.07807 -7.71072,-5.2601 -13.57362,-4.71402 -21.53768,-0.0647 -17.05207,9.95474 -34.95507,18.44787 -52.46732,27.62021 -7.1255,3.73211 -14.14113,7.67398 -21.55183,11.59463 -3.11438,1.70593 -5.88367,3.33759 -8.99489,5.0491 -2.71826,1.33539 -5.09462,2.59095 -7.81666,3.96765 -2.54275,1.08872 -4.7398,2.05637 -6.93684,3.02399 0.25729,-2.48007 0.51458,-4.96014 1.0839,-8.14786 1.95352,-9.49917 3.595,-18.29074 5.46365,-27.40866 0.55685,-2.1214 0.88656,-3.91635 1.31812,-5.93624 0.10186,-0.22492 0.0641,-0.71726 0.11941,-1.10895 0.11061,-1.44422 0.16589,-2.49671 0.55685,-3.68198 2.15224,-9.06839 3.96878,-18.00397 6.0127,-27.25619 0.60205,-1.79725 0.97673,-3.27784 1.59059,-5.05417 1.24512,-5.75821 2.25102,-11.22069 3.39575,-17.06372 1.49778,-5.75983 2.94446,-11.11998 4.12503,-16.53812 0.18582,-0.85278 -0.60081,-2.20145 -1.32943,-2.92815 -20.40509,-20.35083 -40.86069,-40.65101 -61.467655,-61.25285 -2.092201,-2.12639 -4.024719,-3.95946 -6.10691,-6.08548 -4.938385,-4.91795 -9.727082,-9.54291 -14.653168,-14.3382 -0.38765,-0.32905 -0.659187,-0.43133 -1.083912,-0.75796 -0.681087,-0.89458 -1.230255,-1.5083 -1.779423,-2.12204 -0.03119,-1.75726 -5.293655,-2.78529 -0.01563,-5.20694 6.082012,-0.42117 11.457009,-0.81946 16.832009,-1.21774 1.496086,-0.027 2.992164,-0.054 5.282264,-0.3745 11.452683,-1.06169 22.111355,-1.82986 32.770015,-2.59804 6.76459,-0.24106 13.53489,-0.37776 20.29237,-0.74846 9.39909,-0.51555 18.78995,-1.18699 28.18004,-1.85211 0.94554,-0.067 1.86163,-0.54953 3.50259,-0.98724 2.57645,-1.09307 5.3156,-1.55473 6.15285,-3.0684 3.29838,-5.96313 5.99901,-12.2569 8.92148,-18.42795 0.85177,-1.15701 1.70353,-2.31401 2.9044,-4.01247 2.26056,-4.028604 4.31686,-7.446641 6.02676,-11.029962 0.95905,-2.009826 1.00609,-4.478553 2.06415,-6.412117 1.82735,-3.339363 4.12224,-6.422882 6.42893,-9.916717 2.57277,-4.79332 4.93757,-9.283669 7.55862,-13.998837 4.55179,-8.3889 8.84732,-16.552986 13.36627,-25.020954 1.35936,-2.427292 2.49527,-4.550705 3.6312,-6.674114 z"
   id="path149"
   style="fill:#3a5ba7;fill-opacity:1;stroke:#e8d66b;stroke-width:2;stroke-dasharray:none;stroke-opacity:1" />

























































































































































































































</svg>

<?xml version="1.0" encoding="UTF-8" standalone="no"?>
<svg
   version="1.1"
   id="Layer_1"
   x="0px"
   y="0px"
   width="100%"
   viewBox="0 0 439 376"
   enable-background="new 0 0 439 376"
   xml:space="preserve"
   sodipodi:docname="azure.svg"
   inkscape:version="1.3.2 (091e20ef0f, 2023-11-25, custom)"
   xmlns:inkscape="http://www.inkscape.org/namespaces/inkscape"
   xmlns:sodipodi="http://sodipodi.sourceforge.net/DTD/sodipodi-0.dtd"
   xmlns="http://www.w3.org/2000/svg"
   xmlns:svg="http://www.w3.org/2000/svg"><defs
   id="defs366" /><sodipodi:namedview
   id="namedview366"
   pagecolor="#ffffff"
   bordercolor="#000000"
   borderopacity="0.25"
   inkscape:showpageshadow="2"
   inkscape:pageopacity="0.0"
   inkscape:pagecheckerboard="0"
   inkscape:deskcolor="#d1d1d1"
   inkscape:zoom="6.3191457"
   inkscape:cx="259.52875"
   inkscape:cy="123.43441"
   inkscape:window-width="1440"
   inkscape:window-height="868"
   inkscape:window-x="0"
   inkscape:window-y="0"
   inkscape:window-maximized="1"
   inkscape:current-layer="Layer_1" />




















































































































































<path
   fill="#EC1C24"
   opacity="1.000000"
   stroke="none"
   d=" M221.087128,30.000599   C222.798096,26.695269 224.509064,23.389936 226.211121,19.737362   C229.416382,16.394377 230.160904,19.667641 231.675186,21.743528   C232.738419,23.827394 233.610931,25.638777 234.751984,28.066555   C236.468521,31.459061 237.916504,34.235176 239.373077,37.351608   C244.605347,47.242901 249.792923,56.813862 255.065964,66.337509   C258.324158,72.222191 261.712433,78.034866 265.157471,84.228386   C267.564392,89.032280 269.856201,93.487648 272.325134,98.244972   C276.728790,106.346672 280.955353,114.146408 285.267853,122.286682   C286.977142,126.183517 288.889130,128.895950 293.576019,129.010406   C299.394623,129.152481 305.191345,130.189819 311.432068,130.897949   C313.908569,130.915329 315.950531,130.875229 318.458618,130.896912   C339.612701,132.346649 360.300659,133.734619 381.436005,135.213837   C388.878754,136.016312 395.874146,136.727524 402.783203,137.650726   C402.635284,138.164047 402.618103,138.467926 402.390625,138.915390   C401.361298,139.911423 400.586609,140.766388 399.811890,141.621338   C397.579712,143.738251 395.347534,145.855164 392.964111,148.249832   C391.605591,149.493683 390.398315,150.459778 388.851532,151.955017   C385.712036,155.333252 382.912048,158.182343 379.820862,161.195374   C377.351135,163.572449 375.172607,165.785599 372.676575,168.107117   C370.874420,169.773560 369.413422,171.355011 367.901245,172.885941   C356.967621,183.955246 346.023621,195.014313 334.780121,206.217758   C329.779907,211.025925 325.406616,216.090530 320.298981,220.254379   C314.556427,224.935822 312.127838,229.962219 315.481750,237.348358   C316.312042,241.148132 317.212128,244.561646 318.151733,248.396744   C319.246002,253.962784 320.253113,259.117554 321.364014,264.249878   C325.601532,283.827667 329.872498,303.398254 334.130981,322.971527   C334.506714,324.756561 334.882446,326.541565 335.394043,329.014069   C336.181915,332.202393 336.833862,334.703247 337.485840,337.204102   C336.905243,338.413635 336.324615,339.623199 335.100586,340.647980   C331.680908,339.294312 328.904694,338.125366 325.945404,336.659180   C320.838867,333.588776 315.915375,330.815674 310.792542,327.757416   C305.807098,324.975555 301.042755,322.436096 296.230469,319.991028   C286.491425,315.042694 276.726318,310.145538 266.619995,305.114929   C257.217285,300.078827 247.717133,295.813965 239.248535,290.036865   C231.537811,284.776764 225.674911,285.322845 217.710846,289.972137   C200.658783,299.926880 182.755783,308.420013 165.243530,317.592346   C158.118027,321.324463 151.102402,325.266327 143.691696,329.186981   C140.577316,330.892914 137.808029,332.524567 134.696808,334.236084   C131.978546,335.571472 129.602188,336.827026 126.880150,338.203735   C124.337402,339.292450 122.140350,340.260101 119.943314,341.227722   C120.200600,338.747650 120.457886,336.267578 121.027206,333.079865   C122.980728,323.580688 124.622215,314.789124 126.490860,305.671204   C127.047714,303.549805 127.377419,301.754852 127.808975,299.734955   C127.910835,299.510040 127.873055,299.017700 127.928391,298.626007   C128.039001,297.181793 128.094284,296.129303 128.485245,294.944031   C130.637482,285.875641 132.454025,276.940063 134.497940,267.687836   C135.099991,265.890594 135.474670,264.410004 136.088531,262.633667   C137.333649,256.875458 138.339554,251.412979 139.484283,245.569946   C140.982056,239.810120 142.428741,234.449966 143.609314,229.031830   C143.795135,228.179047 143.008499,226.830383 142.279877,226.103683   C121.874786,205.752853 101.419189,185.452667 80.812225,164.850830   C78.720024,162.724442 76.787506,160.891373 74.705315,158.765350   C69.766930,153.847397 64.978233,149.222443 60.052147,144.427155   C59.664497,144.098099 59.392960,143.995819 58.968235,143.669189   C58.287148,142.774612 57.737980,142.160889 57.188812,141.547150   C57.157627,139.789886 51.895157,138.761856 57.173187,136.340210   C63.255199,135.919037 68.630196,135.520752 74.005196,135.122467   C75.501282,135.095490 76.997360,135.068497 79.287460,134.747971   C90.740143,133.686279 101.398811,132.918106 112.057472,132.149933   C118.822060,131.908875 125.592361,131.772171 132.349838,131.401474   C141.748932,130.885925 151.139786,130.214478 160.529877,129.549362   C161.475418,129.482391 162.391510,128.999832 164.032471,128.562119   C166.608917,127.469048 169.348068,127.007385 170.185318,125.493721   C173.483704,119.530586 176.184326,113.236824 179.106796,107.065765   C179.958572,105.908760 180.810333,104.751755 182.011200,103.053299   C184.271759,99.024696 186.328064,95.606659 188.037964,92.023338   C188.997009,90.013512 189.044052,87.544785 190.102112,85.611221   C191.929459,82.271858 194.224350,79.188339 196.531036,75.694504   C199.103806,70.901184 201.468613,66.410835 204.089661,61.695667   C208.641449,53.306767 212.936981,45.142681 217.455933,36.674713   C218.815292,34.247421 219.951202,32.124008 221.087128,30.000599  z"
   id="path149"
   style="fill:#3a5ba7;fill-opacity:1;stroke:#e8d66b;stroke-opacity:1;stroke-width:2;stroke-dasharray:none" />

























































































































































































































</svg>
